X:1
T:Title
%%score { ( 1 3 ) | 2 }
L:1/8
M:3/4
K:Bb
V:1 treble nm="Grand Piano"
V:3 treble 
V:2 bass 
V:1
 z2 z2[Q:1/4=106] [DF]2 | [DF]3 [EG] [DF]2 | [Fd]2 [Ec]2 [DB]2 | [GB]3 [FA] [EG]2 | %4
 [DF]2 [DB]2 [FB]2 | A3 B c2 | c2 B2 A2 | [DB]3 [Ec] [Fd]2 |[M:2/4] [Fd]4 |[M:1/4] [DF]2 | %10
[M:3/4] [DF]3 [EG] [DF]2 | [Fd]2 [Ec]2 [DB]2 | [GB]3 [FA] [EG]2 | [DF]2 [DB]2 [FB]2 | A3 B c2 | %15
 e2 d2 c2 | c2 G2 A2 |[M:2/4] [DB]4 |[M:6/8][Q:1/4=95] z d2- d2 z | z F2- F2 z | z A2- A2 z | %21
[M:5/8] z B- B3- |[M:1/8] B | [DF] |[M:3/4] d4 z2 | F4 z2 | A4 z2 |[M:5/8] B-B- B3 |] %28
V:2
 z2 z2 [B,,B,]2 | [B,,B,]3 [B,,B,] [B,,B,]2 | [B,,B,]2 [B,,B,]2 [B,,B,]2 | [E,B,]3 [E,B,] [E,B,]2 | %4
 [B,,B,]2 [B,,B,]2 [D,B,]2 | [F,CF]3 [F,DF] [F,EF]2 | [F,EF]2 [F,DF]2 [F,CE]2 | %7
 [B,,B,]3 [B,,B,] [B,,B,]2 |[M:2/4] [B,,B,]4 |[M:1/4] [B,,B,]2 |[M:3/4] [B,,B,]3 [B,,B,] [B,,B,]2 | %11
 [B,,B,]2 [B,,B,]2 [B,,B,]2 | [E,B,]3 [E,B,] [E,B,]2 | [B,,B,]2 [B,,F,]2 [D,B,]2 | %14
 [F,CF]3 [F,DF] [F,EF]2 | [F,CF]2 [F,B,F]2 [F,A,E]2 | [F,A,E]2 [F,CE]2 [F,CE]2 |[M:2/4] [B,,B,]4 | %18
[M:6/8] [B,,B,][B,,B,]>[B,,B,] [B,,B,][B,,B,][B,,B,] | %19
 [B,,B,][B,,B,]>[B,,B,] [B,,B,][B,,B,][B,,B,] | [D,B,][F,CE]>[F,C] [F,C][F,C][F,A,] | %21
[M:5/8] [F,A,E][B,,B,]>[B,,B,] [B,,B,][B,,B,]- |[M:1/8] [B,,B,] | [B,,B,] | %24
[M:3/4] [B,,B,]>[B,,B,] [B,,B,][B,,B,] [B,,B,][B,,B,] | %25
 [B,,B,]>[B,,B,] [B,,B,][B,,B,] [B,,B,][D,B,] | [F,CE]>[F,C] [F,C][F,C] [F,A,][F,A,E] | %27
[M:5/8] [B,,B,]>[B,,B,][B,,B,] [B,,B,]2 |] %28
V:3
 x6 | x6 | x6 | x6 | x6 | x6 | x6 | x6 |[M:2/4] x4 |[M:1/4] x2 |[M:3/4] x6 | x6 | x6 | x6 | x6 | %15
 x6 | x6 |[M:2/4] x4 |[M:6/8] [DF]F>F FF[Ec] | [DB]D>D DDD | .[FB]2 z/ E/ EEF |[M:5/8] cD>D DD- | %22
[M:1/8] D | x |[M:3/4] F>F FF [Ec][DB] | D>D DD D[FB] | z z/ E/ EE Fc |[M:5/8] D>DD D2 |] %28

